X: 110
T: Cantantibus organis – Lento
C: Franciszek Walczyński
%%abc-version 2.0
%%abcx-abcm2ps-target-version 5.9.1 (29 Sep 2008)
%%abc-creator hum2abc beta
%%abcx-conversion-date 2021/10/04 07:38:41
%%abc-edited-by Andrzej Borzym
%%abc-edited-by Krzysztof Stępień
%%abcx-initial-encoding-date 2021-07-27
%%humdrum-veritas 2885832699
%%humdrum-veritas-data 1578694773
%%linebreak <none>
%%barnumbers 0
L: 1/4
M: 3/4
N: Derived from pl-kozmzk--mzk-m-346--011_walczynski-franciszek--cantantibus-organis-lento.krn
Q: "Lento."
%%staves {1 2}
V: 1 clef=treble
V: 2 clef=bass
K: G
[V:1] z3 & z3 | 
[V:2] E,F,B,, & z3 | 
[V:1] z3 & GAF | 
[V:2] E,F,B,/A,/ & z3 | 
[V:1] BcA/G/ & E3 | 
[V:2] G,A,2- & zzC,/^C,/ | 
[V:1] F>ED & D3 | 
[V:2] A,>G,F, & D,3 | 
[V:1] z3 & z3 | 
[V:2] G,A,D, & z3 | 
[V:1] z3 & BcA | 
[V:2] G,A,D/C/ & z3 | 
[V:1] dec & G3 | 
[V:2] B,CE- & zzA, | 
[V:1] !fermata!B3 & F3 | 
[V:2] E^D/^C/!fermata!D & !fermata!B,3 | 
[V:1] B^cF & z3 | 
[V:2] z3 & z3 | 
[V:1] ^de^c & F3 | 
[V:2] B,^CE & z3 | 
[V:1] f=ge & B3- | 
[V:2] ^DE=G & z3 | 
[V:1] =d=cA & BG2- | 
[V:2] FEE & zz=C | 
[V:1] BA2 & G2F | 
[V:2] D=C2 & DD,^D, | 
[V:1] G3 & E3 | 
[V:2] B,3 & E,>=D,C,/B,,/ | 
[V:1] F>GA & E3- | 
[V:2] =C3 & A,,3 | 
[V:1] G2F & E2^D | 
[V:2] B,2A, & B,,3 | 
[V:1] E>^D E/G/ & E>zz | 
[V:2] G,>zz & C,>zz | 
[V:1] B3 & zz^D | 
[V:2] zzA, & xxB,, | 
[V:1] E3 & B,3 | 
[V:2] G,3 & E,3 | 
[V:1] z3 & z3 | 
[V:2] z3 & E,F,B,, | 
[V:1] E2!tenuto!E & C3 | 
[V:2] G,A,2 & .C,.A,,.F,, | 
[V:1] !fermata!E3 & B,3 |]  
[V:2] G,3 & !fermata!E,,3 |]  


